X:1
T:Title
%%score { ( 1 3 ) | ( 2 4 5 ) }
L:1/8
Q:1/4=192
M:4/2
K:Db
V:1 treble nm="Grand Piano"
V:3 treble 
V:2 bass 
V:4 bass 
V:5 bass 
V:1
 [DFA]8 [CGA]4 [CGA]4 | F8 A4 [DAc]4 | B4 B4 B4 B4 | z8 A8 | A8 =G4 G4 | A12 z4 | A4 A4 A4 =G4 | %7
w: R.~E.~De~Reef * *|||||||
 [CEA]16 | [DA]8 [CGA]4 [CGA]4 | F8 A4 [DAc]4 | B4 B4 B4 B4 | z8 A8 | B8 d4 d4 | c4 c4 c4 [FB]4 | %14
w: |||||||
 z8 =G8 | A8 B4 c4 | d8 [Af]4 [Ad]4 | z8 B8 | G4 A4 [Gg]4 [Be]4 | z8 c8 | [Fd]4 [Ec]4 [DB]4 [FA]4 | %21
w: |||||||
 G4 F4 E4 d4 | d4 A4 [CG]4 [CE]4 |[M:12/4] D12- D4 z2 z6 |[M:8/4] [DB]16[K:bass] | A16 |] %26
w: |||||
V:2
 D,8 E,4 E,4 | D,8 F,4 F,4 | [G,DG]4 [A,DG]4 [B,DG]4 [CEG]4 | [DG]8 [DF]8 | %4
 [B,DF]8 [B,D_F]4 [B,DF]4 | [A,DF]8[K:bass] [G,C]4 [G,CE]4 | [F,D]4 [F,B,=D]4 [E,CE]4 [E,_DE]4 | %7
 A,8 G,8 | F,8 E,4 E,4 | D,8 F,4 F,4 | [G,DG]4 [A,DG]4 [B,DG]4 [CEG]4 | [DG]8 [DF]8 | %12
 [B,DF]8 [B,F]4 [B,F]4 | [A,CF]4[K:bass] [=G,B,_F]4 [F,A,=F]4 [D,B,]4 | [E,CE]8 B,4 z4 | %15
 E8- [=G,DE-]4 [G,A,E]4 | [F,A,D]8 [D,D]4 [F,D]4 | [G,D]8 [A,DG]4 [F,=D]4 | %18
 [E,E]4 [F,=D]4 [E,E]4 [G,E]4 | z8 E8[K:bass] | [B,D]4 [F,=A,]4 [G,B,]4 [=D,_C]4 | %21
 [E,E]4 [F,D]4 [G,B,D]4 [G,B,E]4 | [A,DF]4 [A,DF]4[K:bass] [A,,A,]4 [A,,G,]4 | %23
[M:12/4] [D,F,]12- [D,F,]4 z2 z6 |[M:8/4] G,16 | [D,F,D]16 |] %26
V:3
 x16 | [Dd]12 z4 | x16 | B8 z4 C4 | x16 | z8 E4 A4 | x16 | x16 | x16 | [Dd]12 z4 | x16 | B8 z4 C4 | %12
 x16 | x16 | A8 z4 D4 | x16 | x16 | [Ac]8 z4 A4 | B8 z8 | d8 z4 G4 | x16 | x16 | x16 | %23
[M:12/4] x24 |[M:8/4] z8[K:bass] B,,8 | x16 |] %26
V:4
 x16 | x16 | x16 | x16 | x16 | x8[K:bass] x8 | x16 | x16 | x16 | x16 | x16 | x16 | x16 | %13
 x4[K:bass] x12 | z8 [E,E]8 | [A,C]8 z8 | x16 | x16 | x16 | [A,A]12[K:bass] z4 | x16 | B,8 z8 | %22
 x8[K:bass] x8 |[M:12/4] x24 |[M:8/4] G,,8 z8 | x16 |] %26
V:5
 x16 | x16 | x16 | x16 | x16 | x8[K:bass] x8 | x16 | x16 | x16 | x16 | x16 | x16 | x16 | %13
 x4[K:bass] x12 | x16 | x16 | x16 | x16 | x16 | F8 z4[K:bass] =A,4 | x16 | x16 | x8[K:bass] x8 | %23
[M:12/4] x24 |[M:8/4] x16 | x16 |] %26

